X:197 
T:Soldier's Joy, The 
F:file ID: cre.5/197sold_j
B:CRE5.011 (Aoibhneas an tSaighdiÃÂÃÂÃÂÃÂºra)
N:Very close to "Father Fielding's Favorite" in O'Neill's 1850. 
This tune is not related to the "Soldier's Joy" hornpipe.
M:6/8
Q:160
R:jig
K:G
D|G2A BcA|BGG GBc|dBG FGA|FDC DEF|
G2A BcA|BGG fed|cAG FGA|1BGG G2:|\
[2 BGG GBd||
|:fg afd|cBc dBG|gab afd|cBc def|
geg fdf|ece gfe|ded cBA|1BGG GBd:|\
[2 BGG G3-|G6|]

%%%

